X:1
T:Reel du Pere Carignan
M:C|
L:1/8
K:D
"D"fafd"G"g3g|"D"fafd A2FA|"A7"dcBA GB2B|ABAG F2Ad|"D"fafd"G"g3g|!
"D"fafd A2dd|1"A7"cdef (3gfe cA|dfec "D"d2f2-:|2"A7"cdef (3gfe cA|]!
dfec "D"dA2A-|]ABAF DFAd|"G"BdBG ABcd|"A7"efec Aceg|!
"D"fafd A A2 A-|ABAF DFAd|"G"BdBG ABcd|1"A7"efec Aceg|!
(3gfe cA "D"dA2A-:|2"A7"efec Aceg|(3gfe cA "D"df2f-|]!
